X: 781
T: Zhi shuojin
%%abc-version 2.0
%%abcx-abcm2ps-target-version 5.9.1 (29 Sep 2008)
%%abc-creator hum2abc beta
%%abcx-conversion-date 2013/10/02 07:52:30
%%abc-edited-by Helmut Schaffrath
%%humdrum-veritas 2788681669
%%humdrum-veritas-data 2330767172
%%continueall 1
%%barnumbers 0
L: 1/16
M: 2/4
K: F
c2 d f c2 A2 [I:setbarnb 1]| 
d2 f2 d2 c2 | 
A2 c2 A G F2 | 
G2> A2G4 | 
c2 c A c2 d2 | 
D F C D2< F2 G | 
A c A G F G D2 | 
C8 |]  



